X: 28174
T: Mrs O'Connor's
R: slide
M: 12/8
K: Amixolydian
|:ABc def a2g e2d|cde B2c d2f [Aa]3|
ABc def a2g e2d|1 cde B2c d3 d3:|2 cde B2c d3 d2f||
|:a2f a2f a2g e2d|cde B2c d2f [Aa]3|
a2f a2f a2g e2d|1 cde B2c d3 d2f:|2 cde B2c d3 dcB||

